svg/filterEvent.svg

<svg width="68" height="73" viewBox="0 0 68 73" fill="none" xmlns="http://www.w3.org/2000/svg">
<path id="Vector" d="M52.8889 40.1H34V58.1H52.8889V40.1ZM49.1111 0.5V7.7H18.8889V0.5H11.3333V7.7H7.55556C3.36222 7.7 0.0377777 10.94 0.0377777 14.9L0 65.3C0 67.2096 0.796029 69.0409 2.21297 70.3912C3.62991 71.7414 5.5517 72.5 7.55556 72.5H60.4444C64.6 72.5 68 69.26 68 65.3V14.9C68 10.94 64.6 7.7 60.4444 7.7H56.6667V0.5H49.1111ZM60.4444 65.3H7.55556V25.7H60.4444V65.3Z" fill="#77AFFF"/>
</svg>

<svg fill="none" version="1.1" viewBox="0 0 68 73" xmlns="http://www.w3.org/2000/svg"><path d="m52.9 40.1h-18.9v18h18.9v-18zm-3.78-39.6v7.2h-30.2v-7.2h-7.56v7.2h-3.78c-4.19 0-7.52 3.24-7.52 7.2l-0.0378 50.4c0 1.91 0.796 3.74 2.21 5.09 1.42 1.35 3.34 2.11 5.34 2.11h52.9c4.16 0 7.56-3.24 7.56-7.2v-50.4c0-3.96-3.4-7.2-7.56-7.2h-3.78v-7.2h-7.56zm11.3 64.8h-52.9v-39.6h52.9v39.6z" fill="#77afff"/></svg>
